{"backgroundcolor":"#111827","compressionlevel":-1,"height":12,"infinite":false,"layers":[{"data":[0,0,0,0,0,0,0,0,0,0,0,0,0,0,0,0,0,0,0,0,0,0,0,0,0,0,0,0,0,0,0,0,1,1,1,1,1,1,1,1,1,1,1,0,0,0,0,1,0,0,0,0,0,0,0,0,0,1,0,0,0,0,1,0,0,0,0,0,0,0,0,0,1,0,0,0,0,1,0,0,0,0,1,1,1,1,0,1,0,0,0,0,1,1,1,0,0,1,1,1,1,0,1,0,0,0,0,1,1,1,0,0,0,0,0,0,0,1,0,0,0,0,1,1,1,0,0,0,0,0,0,0,1,0,0,0,0,1,1,1,1,1,1,0,0,1,1,1,0,0,0,0,0,0,0,0,0,0,0,0,0,0,0,0,0,0,0,0,0,0,0,0,0,0,0,0,0,0,0,0],"height":12,"id":1,"name":"collisions","opacity":1,"type":"tilelayer","visible":true,"width":15,"x":0,"y":0},{"data":[0,0,0,0,0,0,0,0,0,0,0,0,0,0,0,0,0,0,0,0,0,0,0,0,0,0,0,0,0,0,0,0,546,546,546,546,546,546,546,546,546,546,546,0,0,0,0,546,546,546,546,546,546,546,546,546,546,546,0,0,0,0,546,546,546,546,546,546,546,546,546,546,546,0,0,0,0,546,546,546,546,546,546,546,546,546,546,546,0,0,0,0,546,546,546,546,546,546,546,546,546,546,546,0,0,0,0,546,546,546,546,546,546,546,546,546,546,546,0,0,0,0,546,546,546,546,546,546,546,546,546,546,546,0,0,0,0,546,546,546,546,546,546,546,546,546,546,546,0,0,0,0,0,0,0,0,0,0,0,0,0,0,0,0,0,0,0,0,0,0,0,0,0,0,0,0,0,0,0,0],"height":12,"id":2,"name":"floor1","opacity":1,"type":"tilelayer","visible":true,"width":15,"x":0,"y":0},{"data":[0,0,0,0,0,0,0,0,0,0,0,0,0,0,0,0,0,0,0,0,0,0,0,0,0,0,0,0,0,0,0,0,271,271,271,271,271,271,271,271,271,271,271,0,0,0,0,271,0,0,0,0,0,0,0,0,0,271,0,0,0,0,271,0,0,0,0,0,0,0,0,0,271,0,0,0,0,271,0,0,0,0,0,0,0,0,0,271,0,0,0,0,271,0,0,0,0,0,0,0,0,0,271,0,0,0,0,271,0,0,0,0,0,0,0,0,0,271,0,0,0,0,271,0,0,0,0,0,0,0,0,0,271,0,0,0,0,529,529,529,529,529,529,0,0,529,529,529,0,0,0,0,0,0,0,0,0,0,0,0,0,0,0,0,0,0,0,0,0,0,0,0,0,0,0,0,0,0,0,0],"height":12,"id":3,"name":"walls1","opacity":1,"type":"tilelayer","visible":true,"width":15,"x":0,"y":0},{"data":[0,0,0,0,0,0,0,0,0,0,0,0,0,0,0,0,0,0,0,0,0,0,0,0,0,0,0,0,0,0,0,0,0,0,0,0,0,0,0,0,0,0,0,0,0,0,0,0,1621,1622,1623,1624,0,0,0,0,0,0,0,0,0,0,0,1625,1626,1627,1628,1267,1268,1269,1270,0,0,0,0,0,0,0,1629,1630,1631,1632,1521,1522,1523,1524,0,0,0,0,0,0,0,35,36,0,0,1531,1532,1533,1534,0,0,0,0,0,0,0,47,48,0,0,1267,1268,1269,1270,0,0,0,0,0,0,0,59,60,0,0,0,0,0,0,0,0,0,0,0,0,0,0,0,0,0,0,0,0,0,0,0,0,0,0,0,0,0,0,0,0,0,0,0,0,0,0,0,0,0,0,0,0,0,0,0,0,0,0,0,0,0,0,0],"height":12,"id":4,"name":"furniture2","opacity":1,"type":"tilelayer","visible":true,"width":15,"x":0,"y":0},{"data":[0,0,0,0,0,0,0,0,0,0,0,0,0,0,0,0,0,0,0,0,0,0,0,0,0,0,0,0,0,0,0,0,0,0,0,0,0,0,0,0,0,0,0,0,0,0,0,0,0,0,0,0,0,0,0,0,0,0,0,0,0,0,0,0,0,0,0,0,0,0,0,0,0,0,0,0,0,0,0,0,0,0,0,0,0,0,0,0,0,0,0,0,0,0,0,0,0,0,0,0,0,0,0,0,0,0,0,0,0,0,0,0,0,0,0,0,0,0,0,0,0,0,0,0,0,0,0,2,0,0,0,0,0,0,0,0,0,0,0,0,0,0,0,0,0,0,0,0,0,0,0,0,0,0,0,0,0,0,0,0,0,0,0,0,0,0,0,0,0,0,0,0,0,0,0,0,0,0,0,0],"height":12,"id":5,"name":"start","opacity":1,"type":"tilelayer","visible":true,"width":15,"x":0,"y":0},{"draworder":"topdown","id":6,"name":"portas","objects":[{"height":32,"id":1,"name":"from-hq","properties":[{"name":"start","type":"bool","value":true}],"rotation":0,"type":"","visible":true,"width":32,"x":224,"y":256},{"height":32,"id":2,"name":"to-hq","properties":[{"name":"exitUrl","type":"string","value":"hq.tmj#from-diretoria-fechada"}],"rotation":0,"type":"area","visible":true,"width":64,"x":256,"y":288}],"opacity":1,"type":"objectgroup","visible":true,"x":0,"y":0}],"nextlayerid":7,"nextobjectid":3,"orientation":"orthogonal","properties":[{"name":"mapName","type":"string","value":"Diretoria fechada"},{"name":"script","type":"string","value":"diretoria.html?v=nv1f1"}],"renderorder":"right-down","tiledversion":"1.11.2","tileheight":32,"tilesets":[{"columns":6,"firstgid":1,"image":"tilesets/WA_Special_Zones.png","imageheight":64,"imagewidth":192,"margin":0,"name":"WA_Special_Zones","spacing":0,"tilecount":12,"tileheight":32,"tiles":[{"id":2,"properties":[{"name":"collides","type":"bool","value":true}]}],"tilewidth":32},{"columns":12,"firstgid":13,"image":"tilesets/WA_Other_Furniture.png","imageheight":416,"imagewidth":384,"margin":0,"name":"WA_Other_Furniture","spacing":0,"tilecount":156,"tileheight":32,"tilewidth":32},{"columns":25,"firstgid":169,"image":"tilesets/WA_Room_Builder.png","imageheight":1280,"imagewidth":800,"margin":0,"name":"WA_Room_Builder","spacing":0,"tilecount":1000,"tileheight":32,"tilewidth":32},{"columns":13,"firstgid":1169,"image":"tilesets/WA_Seats.png","imageheight":448,"imagewidth":416,"margin":0,"name":"WA_Seats","spacing":0,"tilecount":182,"tileheight":32,"tilewidth":32},{"columns":10,"firstgid":1351,"image":"tilesets/WA_Tables.png","imageheight":864,"imagewidth":320,"margin":0,"name":"WA_Tables","spacing":0,"tilecount":270,"tileheight":32,"tilewidth":32},{"columns":4,"firstgid":1621,"image":"tilesets/Diretoria_Cyber.png","imageheight":96,"imagewidth":128,"margin":0,"name":"Diretoria_Cyber","spacing":0,"tilecount":12,"tileheight":32,"tilewidth":32},{"columns":2,"firstgid":2974,"image":"tilesets/HQ_Sino.png","imageheight":32,"imagewidth":64,"margin":0,"name":"HQ_Sino","spacing":0,"tilecount":2,"tileheight":32,"tilewidth":32}],"tilewidth":32,"type":"map","version":"1.10","width":15}
